X: 83
T: No_176.krn
%%abc-version 2.0
%%abcx-abcm2ps-target-version 5.9.1 (29 Sep 2008)
%%abc-creator hum2abc beta
%%abcx-conversion-date 2020/08/10 18:54:56
%%gracespace 0 6 6
%%humdrum-veritas 1790761933
%%humdrum-veritas-data 3312484622
%%linebreak <none>
%%barnumbers 0
L: 1/8
M: 2/4
%%staves {1 2}
V: 1 clef=bass
V: 2 clef=bass
K: Bb
[V:1] [K:clef=bass][M:2/4]F2F2- | 
[V:2] [K:clef=bass][M:2/4]!accent!G,, z/ G,,/ !accent!G,, z/ G,,/ | 
[V:1] F2D2 | 
[V:2] z4 | 
[V:1] B,<B,B,2 | 
[V:2] z4 | 
[V:1] B,4 | 
[V:2] z4 | 
[V:1] F2D2- | 
[V:2] z4 | 
[V:1] D2F/D3/ | 
[V:2] z4 | 
[V:1] B,<B,B,2- | 
[V:2] z4 | 
[V:1] B,4 | 
[V:2] z4 | 
[V:1] F>D F/B,3/ | 
[V:2] z4 | 
[V:1] !fermata!B,2G,2 | 
[V:2] z4 | 
[V:1] F,>F,F,2- | 
[V:2] z4 | 
[V:1] F,2D,2 | 
[V:2] z4 | 
[V:1] D<B, G,/F,3/ | 
[V:2] z4 | 
[V:1] F,D,-D,2 | 
[V:2] z4 | 
[V:1] B,,>B,,B,,2 | 
[V:2] z4 | 
[V:1] B,,4 |]  
[V:2] z4 |]  


